X:53
T: Graserin und Reiter
N: Q0149A
O: Mitteleuropa, Deutschland / Frankreich, Lothringen, Kreis Forbach
R: Ballade, Verfuehrung, Verlassen des Elternhauses
M: 3/4
L: 1/8
K: G
DG | G4G2 | G2A2B2 | A4F2 | D4
D2 | G4G2 | G2A2B2 | A4
AB | c2e2e2 | e2d2c2 | B4d2 | d2c2
B2 | A4d2 | d2d2c2 | B4
AB | c2e2e2 | e2d2c2 | B4d2 | d2c2
B2 | A4d2 | d2d2c2 | B4

